X:1
T:Title
L:1/8
Q:1/4=75
M:3/4
K:D
V:1 treble nm="Church Organ, Staff"
V:1
 F>G A2 B2 | A>d c2 B2 | AF D2 E2 | F6 | F>B d2 c2 | BF ^G2 A2 | E2 c2 B2 | A6 | A>B Ac fe | %9
w: By~G.~B.~Lissant * * *|||||||||
 ed A4 | B>=c BF GA | AG c2 B2 | AB/c/- c/gf/- f/ed/- | d>c- c z/ B/- B z/ A/- | %14
w: |||||
 A>B- B z/ c/- c/ed/- | d6 |] %16
w: ||

